!!!ONB: MCCC : IJH0413_02 : Extracted Monophonic Melody
!!!COM: Haydn, Joseph
!!!OPR: String Quartet in B-flat major
!!!OMV: 2
!!!SCT: Hob.III:69 ; Op.71 No.1
!!!ODT: 1793///
**kern
*thru
*k[b-]
*F:
*clefF
*M6/8
2.ff[
=1
8ff]
16.ee
32dd
8cc
8.cc
16a
8cc
=2
4.f
8f#
8g
8g
=3
4.g
8g#
8a
8a
=4
4.ff
8ff#
8gg
8gg
=5
4.gg
8gg#
8aa
8aa
=6
8.aa
16gg
8ff
8ee
16ff
16r
16aa
16r
=7
8.cc
16dd
8b
8cc
8r
8r
=8
8.ee-
16dd-
8cc
8cc
8b-
8b-
=9
4b-
16cc
16b-
4b-
8b
=10
4cc
16dd-
16cc
4.cc
=11
8.ff
16gg
16aa-
16b
8.cc
16cc#
16dd
16ee
=12
2.ff[
=13
8ff]
16.ee
32dd
8cc
8.cc
16a
8cc
=14
4.f
8f#
8g
8g
=15
8g#
8a
8a
8a
8b-
8b-
=16
8.b-
32cc
32dd
48ee-
48ff
48gg
48aa
48bb-
48ccc
8ddd
8bb-
8gg
=17
4.ee
4ff
8r
=18
8.dd
16cc
8b-
8cc
8a
16.b-
32g
=19
8.f
16g
8e
8f
8r
8r
=20
8.f
16g
8e
8f
8r
8r
=21
16r
16cc
16b
16cc
16b
16cc
32cc
32ff
32ee
32gg
32ff
32aa
32gg
32bb-
16aa
16ccc
=22
16r
16cc
16b
16cc
16b
16cc
32cc
32ff
32ee
32gg
32ff
32aa-
32gg
32bb-
16aa-
16ccc
=23
4.ccc
4.bb-[
=24
8bb-]
8aa-
8gg-
8ff
8ee-
8dd-[
=25
16dd-]
16e-
16d
16e-
16g-
16b-
16b-
16d-
16c
16d-
16c
16e-
=26
16d-
16e-
16f
16g-
16g
16a-
16a
16b-
16b
16cc
16dd-
16ff
=27
16ff
16e-
16d
16e-
16g-
16b-
16b-
16d-
16c
16d-
16c
16e-
=28
4d-
8.r
16ee-
16dd
16ee-
16gg-
16cc
=29
4dd-
8.r
16ee-
16dd
16ee-
16gg-
16cc
=30
16dd-
16ff
16ee
16ff
16ee
16ff
16r
16ff
16ee
16ff
16ee
16ff
=31
16r
16ff
16ee
16ff
16aa-
16ff
8ee
8r
8cc
=32
8b-
8r
8a-
16g
16c
16B
16c
16d-
16c
=33
16r
16c
16B
16c
16B
16c
32B
32c
32d
32c
32e
32d
32f
32e
32g
32f
32a
32g
=34
16b-
16g
16e
16f
16g
16a
16b-
16b
16cc
16cc#
16dd
16ee
=35
2.ff[
=36
8ff]
16.ee
32dd
8cc
8.cc
16a
8cc
=37
4.f
8f#
8g
8g
=38
4.g
8f#
8a
8a
=39
4.ff
8ff#
8gg
8gg
=40
4.gg
8gg#
8aa
8aa
=41
8.aa
16gg
8ff
8ee
16ff
16r
16aa
16r
=42
8.cc
16dd
8b
8cc
8r
8r
=43
8.ee-
16dd-
8cc
8cc
8b-
8b-
=44
4b-
16cc
16b-
4b-
8b
=45
4cc
16dd-
16cc
4.cc
=46
8.ff
16gg
16aa-
16b
8.cc
16cc
16dd
16ee
=47
2.ff[
=48
8ff]
16.ee
32dd
8cc
8.cc
16a
8cc
=49
4.f
8f#
8g
8g
=50
8g#
8a
8a
8a
8b-
8b-
=51
8.b-
32cc
32dd
48ee-
48ff
48gg
48aa
48bb-
48ccc
8ddd
8bb-
8gg
=52
4.ee
4ff
8r
=53
8.dd
16cc
8b-
8cc
8a
16.b-
32g
=54
8.f
16g
8e
16f
16c
16B
16c
16B
16c
=55
4.e
16f
16c
16B
16c
16B
16c
=56
4.e
8f
8r
8a
=57
8f
8r
8f
8f
8r
8r
==
*-
